build/images/fb-icons/eye.svg

<svg xmlns="http://www.w3.org/2000/svg" preserveAspectRatio="xMidYMid" width="26" height="14" viewBox="0 0 26 14"><defs><style>.cls-1{fill:#f8f8f8;fill-rule:evenodd}</style></defs><path d="M25.804 7.519C25.572 7.783 19.99 14 12.999 14S.426 7.783.194 7.519a.79.79 0 0 1 0-1.038C.426 6.217 6.008 0 12.999 0c6.992 0 12.573 6.217 12.805 6.481a.79.79 0 0 1 0 1.038zM12.999 1.556C10.06 1.556 7.667 3.998 7.667 7s2.393 5.444 5.332 5.444c2.94 0 5.332-2.442 5.332-5.444s-2.392-5.444-5.332-5.444zm0 9.333c-2.1 0-3.808-1.745-3.808-3.889 0-2.144 1.708-3.889 3.808-3.889.622 0 1.202.168 1.721.439a2.341 2.341 0 0 0-.959 1.894c0 1.531 1.448 2.716 2.982 2.211-.308 1.832-1.864 3.234-3.744 3.234z" class="cls-1"/></svg>

<svg xmlns="http://www.w3.org/2000/svg" xmlns:xlink="http://www.w3.org/1999/xlink" preserveAspectRatio="xMidYMid" width="26" height="14" viewBox="0 0 26 14">
  <defs>
    <style>
      .cls-1 {
        fill: #f8f8f8;
        fill-rule: evenodd;
      }
    </style>
  </defs>
  <path d="M25.804,7.519 C25.572,7.783 19.990,14.000 12.999,14.000 C6.008,14.000 0.426,7.783 0.194,7.519 C-0.065,7.223 -0.065,6.777 0.194,6.481 C0.426,6.217 6.008,-0.000 12.999,-0.000 C19.991,-0.000 25.572,6.217 25.804,6.481 C26.063,6.777 26.063,7.223 25.804,7.519 ZM12.999,1.556 C10.060,1.556 7.667,3.998 7.667,7.000 C7.667,10.002 10.060,12.444 12.999,12.444 C15.939,12.444 18.331,10.002 18.331,7.000 C18.331,3.998 15.939,1.556 12.999,1.556 ZM12.999,10.889 C10.899,10.889 9.191,9.144 9.191,7.000 C9.191,4.856 10.899,3.111 12.999,3.111 C13.621,3.111 14.201,3.279 14.720,3.550 C14.141,3.974 13.761,4.662 13.761,5.444 C13.761,6.975 15.209,8.160 16.743,7.655 C16.435,9.487 14.879,10.889 12.999,10.889 Z" class="cls-1"/>
</svg>
